!!!OTL: Die Kindsmoerderin. / (Verspätete Gnade.)
!!!ARE: Europa, Mitteleuropa, Deutschland, Schwaben
!!!SCT: A0094
!!!TXL: @@DE
!!!YEM: Copyright 1995, estate of Helmut Schaffrath.
**kern	**text
*M4/4	*
*met(c)	*
*k[b-e-a-d-]	*
*f:	*
{4f	1.
=1	=1
4a-	Jo-
4f	-ſeph,
4cc	lie-
4cc	-ber
=2	=2
2cc	Jo-
4a-	-ſeph,
4a-	was
=3	=3
2g	haſt
4g	du
4f	ge-
=4	=4
2g	-dacht,
4r}	.
{4g\	daß
=5	=5
4g	du
4a-	die
4b-	ſchö-
4cc	-ne
=6	=6
2dd-	Nan-
4cc	-nerl
4b-/	ins
=7	=7
2a-	Un-
4g	-glück
4g	ge-
=8	=8
2f	-bracht!
4r}	.
==	==
!!!GTL: Balladen und Romanzen (erzählende Volkslieder)
!!!AGN: Romanze, Ballade, Lied
!! Aus Schwaben. Aufgezeichnet vom Consistorialrath Horstig und zuerst
!!    mit Melodie mitgetheilt in Friedr. Reichardt, Berliner musikal.
!!    Zeitung II. Jahrg. Berlin 1806 S. 40 und Beilage 10.
!!!ONB: ESAC (Essen Associative Code) Database: ALTDEU
!!!AMT: simple quadruple
!!!AIN: vox
!!!EED: Helmut Schaffrath
!!!EEV: 1.0
!!!URL-scan: https://rosdok.uni-rostock.de/mcrviewer/recordIdentifier/rosdok_ppn738218359/iview2/phys_0262.iview2?x=-425.8853427895981&y=2338.2520094730426&scale=0.4823261117445838&rotation=0&layout=singlePageLayout
!!!ENC: Anna Maria Matuszewska
!!!EEV: 2024/22/02
*-	*-
